X: 133
T:Union Hornpipe
M:2/4
L:1/16
Z:abc by Bruce Osborne - bosborne@kos.net
K:G
G2|DGBG dGBG|efge dBAB|GFGA BABG|ABAF GFED|!
DGBG dGBG|efge dBAB|GBdg ecAF|G2B2 G2:|!
|:d2|gbeg dgBd|dBge dBAB|GBdB edcB|AGAB A2DC|!
B,DGB d2cB|ABcd e2ge|dBGB AGFA|G2B2 G2:|!
